X:477
T:Leg of the Duck, The
R:jig
D:M\'orga
Z:hn-jig-477
M:6/8
L:1/8
K:G
gdd edd | gdd d3 | ged e2d | ^cAA A3 |
Bdg gfe | dBA GED | EGG G2A | BGG G3 |
gdd edd | gdd d3 | ged e2d | ^cAA A3 |
~f3 gfe | dBA GED | EGG G2A | BGG G2A ||
|: Bcd e2B | dBA GED | EAA A2G | EAA ABc |
Bcd e2B | dBA GED | EGG GED |1 EGG G2A :|2 EGG G3 ||

